static/logos/cultureAmp-glyph-color.svg

<svg width="50" height="50" viewBox="0 0 50 50" fill="none" xmlns="http://www.w3.org/2000/svg">
<g clip-path="url(#clip0_1_3110)">
<path d="M39.0556 30.6835C39.1911 30.9217 39.2367 31.2009 39.1832 31.47C38.668 33.8108 37.4145 35.9241 35.6077 37.4988C35.5086 37.5738 35.4253 37.6676 35.3624 37.7747C35.3398 37.8238 35.3282 37.8771 35.3282 37.9311C35.3282 37.9852 35.3398 38.0385 35.3624 38.0874C35.3985 38.1294 35.4439 38.1624 35.495 38.1836C35.5462 38.205 35.6015 38.2141 35.6568 38.2102C35.9185 38.1405 36.1714 38.0417 36.4111 37.9158C37.4709 37.3138 38.4073 36.5168 39.1709 35.5668C39.6309 35.0088 40.0847 34.4506 40.5202 33.8741C41.3402 32.7355 41.947 31.4576 42.3111 30.1024C42.6421 29.0047 42.9242 27.8945 43.2677 26.7968C43.408 26.3942 43.5782 26.0027 43.7768 25.6255C43.8567 25.5092 43.9492 25.4023 44.0527 25.3065H44.1386C44.2244 25.5947 44.3288 25.8708 44.39 26.1651C44.5505 27.0909 44.5732 28.0353 44.4576 28.9679C44.3303 30.1815 44.0817 31.3792 43.7155 32.5433C43.4589 33.2588 43.1127 33.9388 42.6851 34.5671C41.6105 36.3385 40.3412 37.9841 38.9011 39.4735C37.8402 40.498 36.6932 41.4295 35.4727 42.2579C35.3838 42.3035 35.3029 42.3636 35.2336 42.4358C35.1623 42.5217 35.1252 42.6308 35.1294 42.7424C35.155 42.7923 35.1924 42.835 35.2383 42.8671C35.2842 42.8992 35.3374 42.9195 35.393 42.9264C35.6495 42.9247 35.905 42.8918 36.1535 42.8282C37.2867 42.5017 38.3465 41.9603 39.2752 41.2336C41.8727 39.3186 43.9823 36.8183 45.4326 33.9355C46.3568 32.0545 46.9561 30.0308 47.205 27.9497C47.3542 26.6361 47.3686 25.3106 47.248 23.9941C47.1427 23.3194 47.1635 22.6311 47.3092 21.9641C47.3479 21.8112 47.4035 21.663 47.4748 21.5224C47.6405 21.2035 47.8797 21.1852 48.0391 21.5224C48.2068 21.8417 48.3306 22.1821 48.4071 22.5344C48.7438 24.2214 48.8491 25.9462 48.7199 27.6615C48.4818 30.4483 47.7812 33.1759 46.647 35.7324C45.4982 38.3647 43.7733 40.7058 41.5995 42.5829C40.8942 43.1962 40.2197 43.8095 39.4898 44.3861C38.6133 45.0233 37.6742 45.57 36.6871 46.0173C34.5091 47.0994 32.1911 47.8735 29.7998 48.3171C28.3342 48.5715 26.8459 48.6703 25.3595 48.6115C24.6298 48.6115 23.8938 48.5626 23.1641 48.5258C21.5141 48.4344 19.8862 48.1038 18.3312 47.5444C16.0795 46.7609 13.9153 45.7455 11.8733 44.5148C9.49198 43.0547 7.461 41.0886 5.92439 38.7559C5.16582 37.6589 4.50502 36.4974 3.94961 35.2847C3.92129 35.2127 3.87573 35.1488 3.81691 35.0985C3.75809 35.0483 3.68782 35.0132 3.61229 34.9965C3.20898 34.8962 2.83379 34.7055 2.51503 34.4388C2.19629 34.1721 1.94235 33.8364 1.77241 33.4571C1.31765 32.3465 0.964583 31.1971 0.717555 30.0227C0.268095 28.1268 0.0274752 26.1876 0 24.2394C0.0184202 23.0059 0.131188 21.7758 0.337312 20.5595C0.570108 18.9071 0.981371 17.2847 1.56389 15.7208C2.07909 14.3521 2.80318 13.0715 3.71041 11.9245C4.23785 11.2621 4.67329 10.52 5.18844 9.84539C8.458 5.52417 13.139 2.48594 18.4171 1.25931C19.4352 1.01399 20.4533 0.756408 21.4836 0.566286C22.4035 0.394565 23.3235 0.284174 24.2679 0.198312C25.3595 0.100186 26.4512 0.0143254 27.5491 0.00205961C31.9532 -0.0592658 36.2676 1.25025 39.8947 3.74927C40.308 3.99927 40.6805 4.31165 40.9985 4.67535C41.2335 4.96155 41.3898 5.30394 41.4524 5.66888C41.4767 5.75474 41.5258 5.83153 41.5935 5.88967C42.4582 6.72374 43.3782 7.51488 44.1755 8.41029C45.4424 9.79451 46.3594 11.4622 46.8494 13.2737C47.0739 14.0053 47.1521 14.774 47.0795 15.5359C47.0068 16.2977 46.7848 17.0379 46.4262 17.7139C45.8264 18.7238 44.9829 19.5673 43.973 20.1671C42.8495 20.9315 41.5018 21.2965 40.1461 21.2035C38.8786 21.1456 37.6756 20.6291 36.7608 19.75C35.7995 18.7512 34.7753 17.815 33.6942 16.9473C32.9829 16.4076 32.2468 15.8986 31.5048 15.4141C30.6077 14.875 29.6139 14.5167 28.5794 14.3592C27.4026 14.144 26.2041 14.0719 25.01 14.1446C22.3995 14.1943 19.8738 15.0799 17.8038 16.6714C16.2526 17.8433 14.9758 19.3398 14.0628 21.0564C13.5457 22.0979 13.2196 23.2238 13.0999 24.3805C13.0001 25.0939 12.9427 25.8127 12.9282 26.533C12.986 28.5864 13.5215 30.598 14.4921 32.4083C15.2092 33.8127 16.1636 35.0824 17.3132 36.1618C18.3824 37.1226 19.567 37.9467 20.8397 38.6148C22.2882 39.4002 23.8879 39.8664 25.5314 39.9826C27.6895 40.2079 29.8695 39.8808 31.8667 39.032C32.8238 38.582 33.7052 37.9862 34.4792 37.2656C35.8162 36.1158 36.9377 34.7367 37.7911 33.1933C38.11 32.6353 38.3308 32.022 38.6006 31.4333C38.6803 31.2555 38.7723 31.0776 38.8642 30.9059C38.9192 30.8244 38.9833 30.75 39.0556 30.6835Z" fill="#8F2FA9"/>
</g>
<defs>
<clipPath id="clip0_1_3110">
<rect width="50" height="50" fill="white"/>
</clipPath>
</defs>
</svg>

<svg xmlns="http://www.w3.org/2000/svg" width="64" height="64" fill="none" viewBox="0 0 50 50"><g clip-path="url(#a)"><path fill="#8F2FA9" d="M39.056 30.683c.135.239.18.518.127.787a11.187 11.187 0 0 1-3.575 6.029.948.948 0 0 0-.246.276.374.374 0 0 0 0 .312.354.354 0 0 0 .295.123c.262-.07.514-.168.754-.294a9.666 9.666 0 0 0 2.76-2.35 50.9 50.9 0 0 0 1.35-1.692 11.608 11.608 0 0 0 1.79-3.772c.331-1.097.613-2.207.957-3.305.14-.403.31-.794.509-1.172.08-.116.172-.223.276-.319h.086c.085.289.19.565.251.86.16.925.183 1.87.068 2.802a18.264 18.264 0 0 1-.742 3.575 8.992 8.992 0 0 1-1.03 2.024 27.807 27.807 0 0 1-3.785 4.907 25.764 25.764 0 0 1-3.428 2.784.902.902 0 0 0-.24.178.453.453 0 0 0-.104.306.343.343 0 0 0 .264.184c.257-.001.512-.034.76-.098a9.198 9.198 0 0 0 3.122-1.594 20.53 20.53 0 0 0 6.158-7.299 18.576 18.576 0 0 0 1.772-5.985c.15-1.314.164-2.64.043-3.956a5.522 5.522 0 0 1 .061-2.03c.039-.153.095-.301.166-.442.166-.319.405-.337.564 0 .168.32.292.66.368 1.012a18.93 18.93 0 0 1 .313 5.128 25.19 25.19 0 0 1-2.073 8.07 19.196 19.196 0 0 1-5.047 6.85c-.706.614-1.38 1.227-2.11 1.804a15.992 15.992 0 0 1-2.803 1.631 26.233 26.233 0 0 1-6.887 2.3 21.088 21.088 0 0 1-4.44.294c-.73 0-1.466-.048-2.196-.085a17.065 17.065 0 0 1-4.833-.982 34.432 34.432 0 0 1-6.458-3.03 19.044 19.044 0 0 1-5.949-5.758 22.783 22.783 0 0 1-1.974-3.471.473.473 0 0 0-.338-.288 2.74 2.74 0 0 1-1.84-1.54 19.84 19.84 0 0 1-1.054-3.434A26.703 26.703 0 0 1 0 24.239c.018-1.233.131-2.463.337-3.68a23.092 23.092 0 0 1 1.227-4.838 14.161 14.161 0 0 1 2.146-3.796c.528-.663.963-1.405 1.478-2.08a23.164 23.164 0 0 1 13.23-8.586c1.017-.245 2.035-.503 3.066-.693.92-.171 1.84-.282 2.784-.368C25.359.1 26.45.014 27.549.002A21.239 21.239 0 0 1 39.895 3.75c.413.25.785.563 1.103.926.236.287.392.629.454.994a.454.454 0 0 0 .142.22c.864.835 1.784 1.626 2.581 2.521a11.746 11.746 0 0 1 2.674 4.864 5.827 5.827 0 0 1-.423 4.44 7.027 7.027 0 0 1-2.453 2.453 6.065 6.065 0 0 1-3.827 1.036 5.23 5.23 0 0 1-3.385-1.453 32.428 32.428 0 0 0-3.067-2.803 37.916 37.916 0 0 0-2.19-1.533 8.024 8.024 0 0 0-2.925-1.055 14.832 14.832 0 0 0-3.569-.214c-2.61.05-5.136.935-7.206 2.526a13.356 13.356 0 0 0-3.741 4.385 9.726 9.726 0 0 0-.963 3.325c-.1.713-.157 1.432-.172 2.152a13.221 13.221 0 0 0 1.564 5.875 13.686 13.686 0 0 0 2.821 3.754c1.07.96 2.254 1.785 3.527 2.453a11.552 11.552 0 0 0 4.691 1.368 12.8 12.8 0 0 0 6.336-.951 10.208 10.208 0 0 0 2.612-1.766 14.846 14.846 0 0 0 3.312-4.073c.319-.558.54-1.171.81-1.76.08-.177.171-.355.263-.527.055-.082.12-.156.192-.223Z"/></g><defs><clipPath id="a"><path fill="#fff" d="M0 0h50v50H0z"/></clipPath></defs></svg>
